static/images/pieces/chennis/bRP_r.svg

<svg height="45" width="45" xmlns="http://www.w3.org/2000/svg"><g stroke-linecap="round"><g fill-rule="evenodd" stroke="#000" stroke-linejoin="round" stroke-width="1.5"><g stroke-linecap="butt"><path d="m36 9h-27v3h27zm-3.5 7-1.5 2.5h-17l-1.5-2.5zm.5-4v4h-21v-4z"/><path d="m31 18.5v13h-17v-13z" stroke-linejoin="miter"/><path d="m31 31.5 3 2.5h-23l3-2.5zm3 2.5v5h-4v-2h-5v2h-5v-2h-5v2h-4v-5z"/></g><path d="m33 12.5h-21m20 4h-19m18 2h-17m17 13h-17m20 2.5h-23" fill="none" stroke="#ececec" stroke-linejoin="miter" stroke-width="1"/></g><path d="m22.5 30.25349c.93471 0 1.691783-.757073 1.691783-1.691782 0-.376422-.122654-.723238-.329898-1.006611.824744-.473698 1.387261-1.357655 1.387261-2.376953 0-.85858-.397569-1.62411-1.019299-2.127417 1.268837-.448321 3.134027-2.347346 3.134027-5.697075h-9.727747c0 3.349729 1.865189 5.248754 3.134025 5.697075-.621729.503307-1.019298 1.268837-1.019298 2.127417 0 1.019298.562517 1.903255 1.387261 2.376953-.207243.283373-.329897.630189-.329897 1.006611 0 .934709.757073 1.691782 1.691782 1.691782z" fill="#3e588a" stroke="#3e588a" stroke-width=".634419"/></g></svg>

<?xml version="1.0" encoding="UTF-8" standalone="no"?>
<svg
   xmlns:dc="http://purl.org/dc/elements/1.1/"
   xmlns:cc="http://creativecommons.org/ns#"
   xmlns:rdf="http://www.w3.org/1999/02/22-rdf-syntax-ns#"
   xmlns:svg="http://www.w3.org/2000/svg"
   xmlns="http://www.w3.org/2000/svg"
   xmlns:sodipodi="http://sodipodi.sourceforge.net/DTD/sodipodi-0.dtd"
   xmlns:inkscape="http://www.inkscape.org/namespaces/inkscape"
   width="45"
   height="45"
   version="1.1"
   id="svg4681"
   sodipodi:docname="bRP.svg"
   inkscape:version="1.0.1 (3bc2e813f5, 2020-09-07)">
  <metadata
     id="metadata4687">
    <rdf:RDF>
      <cc:Work
         rdf:about="">
        <dc:format>image/svg+xml</dc:format>
        <dc:type
           rdf:resource="http://purl.org/dc/dcmitype/StillImage" />
        <dc:title />
      </cc:Work>
    </rdf:RDF>
  </metadata>
  <defs
     id="defs4685" />
  <sodipodi:namedview
     pagecolor="#ffffff"
     bordercolor="#666666"
     borderopacity="1"
     objecttolerance="10"
     gridtolerance="10"
     guidetolerance="10"
     inkscape:pageopacity="0"
     inkscape:pageshadow="2"
     inkscape:window-width="3840"
     inkscape:window-height="2050"
     id="namedview4683"
     showgrid="false"
     inkscape:zoom="22.4"
     inkscape:cx="22.5"
     inkscape:cy="22.5"
     inkscape:window-x="3828"
     inkscape:window-y="-12"
     inkscape:window-maximized="1"
     inkscape:current-layer="svg4681"
     inkscape:document-rotation="0" />
  <g
     fill-rule="evenodd"
     stroke="#000"
     stroke-width="1.5"
     stroke-linecap="round"
     stroke-linejoin="round"
     id="g4679">
    <path
       d="M 36,9 H 9 v 3 H 36 Z M 32.5,16 31,18.5 H 14 L 12.5,16 Z M 33,12 v 4 H 12 v -4 z"
       stroke-linecap="butt"
       id="path4671" />
    <path
       d="m 31,18.5 v 13 H 14 v -13 z"
       stroke-linecap="butt"
       stroke-linejoin="miter"
       id="path4673" />
    <path
       d="M 31,31.5 34,34 H 11 l 3,-2.5 z m 3,2.5 v 5 h -4 v -2 h -5 v 2 h -5 v -2 h -5 v 2 h -4 v -5 z"
       stroke-linecap="butt"
       id="path4675" />
    <path
       d="M 33,12.5 H 12 m 20,4 H 13 m 18,2 H 14 m 17,13 H 14 M 34,34 H 11"
       fill="none"
       stroke="#ececec"
       stroke-width="1"
       stroke-linejoin="miter"
       id="path4677" />
  </g>
  <path
     d="m 22.5,30.25349 c 0.93471,0 1.691783,-0.757073 1.691783,-1.691782 0,-0.376422 -0.122654,-0.723238 -0.329898,-1.006611 0.824744,-0.473698 1.387261,-1.357655 1.387261,-2.376953 0,-0.85858 -0.397569,-1.62411 -1.019299,-2.127417 1.268837,-0.448321 3.134027,-2.347346 3.134027,-5.697075 h -9.727747 c 0,3.349729 1.865189,5.248754 3.134025,5.697075 -0.621729,0.503307 -1.019298,1.268837 -1.019298,2.127417 0,1.019298 0.562517,1.903255 1.387261,2.376953 -0.207243,0.283373 -0.329897,0.630189 -0.329897,1.006611 0,0.934709 0.757073,1.691782 1.691782,1.691782 z"
     stroke="#000000"
     stroke-width="0.634419"
     stroke-linecap="round"
     id="path4028"
     style="fill:#3e588a;fill-opacity:1;stroke:#3e588a;stroke-opacity:1" />
</svg>
